X:1
T:Title
%%score 1 { ( 2 3 5 ) | ( 4 6 ) }
L:1/8
Q:1/4=100
M:6/4
K:Eb
V:1 treble nm="Akkordion"
V:2 bass nm="Grand Piano"
V:3 bass 
V:5 bass 
V:4 treble 
V:6 treble 
V:1
 B3 cBc G4 A2 | G3 FDB, .E6 | E3 FGA B4 G2 | B4 F2 .B6 | B3 cde e4 G2 | F3 GAB d4 c2 | %6
w: J.~Howard~Entwisle * * * * *||||||
 B3 cBc B4 G2 | G3 A F2 .E6 | z12 | z12 | z12 | z12 | z12 | z12 | z12 | z12 |] %16
w: ||||||||||
V:2
 z G,B,EB,G, z G,B,EB,G, | z A,B,DB,A, z G,B,EB,G, | z G,CECG, z G,B,EB,G, | %3
 z A,B,DB,A, z G,B,EB,G, | E,2[K:treble] G2 G2[K:bass] C,2[K:treble] G2 G2 | %5
 A,,2[K:treble] A2 A2[K:bass] F,,2[K:treble] A2 A2 | %6
 B,,2[K:treble] G2 G2[K:bass] B,,2[K:treble] G2 G2 | .G6 z6 | z6 [DA]6 | z6 [GB]6 | %10
 B2 d2 [EAc]2 A2- [Ad]2 [DAc]2 | c4- [_Gc]2 B6 | e2 e2 e2 e6 | e2 [Ed]2 [Ec]2 [EB]6 | %14
 B3 c [DB]2 [CA]3 G F2 | E12 |] %16
V:3
 .E,,6 .E,,6 | .B,,6 .E,,6 | .C,6 .B,,6 | .B,,6 .E,,6 | x2[K:treble] x4[K:bass] x2[K:treble] x4 | %5
 x2[K:treble] x4[K:bass] x2[K:treble] x4 | x2[K:treble] x4[K:bass] x2[K:treble] x4 | %7
 z2 z A F2 .E6 | [DF]2 [DF]2 [DF]2 z4 B,2 | G2 G2 G2 z4 E2 | z6 .[DB]6 | .[EA]6 z6 | x12 | x12 | %14
 .D6 .D6 | z2 z C A,2 B,6 |] %16
V:4
 z12 | z12 | z12 | z12 | z2 [B,E]2 [B,E]2 z2 [CE]2 [CE]2 | z2 [CF]2 [CF]2 z2 [CF]2 [CF]2 | %6
 z2[K:bass] [B,E]2 [B,E]2 z2 [B,E]2 [B,E]2 | z2 B,2 [A,D]2 .[E,G,]6 | %8
 [B,,B,]2 [B,,B,]2 [B,,B,]2 .[B,,F,]6 | [E,B,E]2 [E,B,E]2 [E,B,E]2 .[E,B,]6 | %10
 [B,A]2- [B,FA]2[K:bass] B,2 z2 B,2 B,,2 | z4 =A,2[K:treble] [B,G]6 | %12
 [G,B,E]2 [B,E]2 [G,=B,E]2 [A,CE]6 | [A,,CE]2 [A,,B,]2 [A,,A,]2 [E,G,]6 | %14
 [B,,F,]4 [B,,F,]2 z2 z B, [B,,A,B,]2 | [G,B,]3 A, F,2 G,6 |] %16
V:5
 x12 | x12 | x12 | x12 | x2[K:treble] x4[K:bass] x2[K:treble] x4 | %5
 x2[K:treble] x4[K:bass] x2[K:treble] x4 | x2[K:treble] x4[K:bass] x2[K:treble] x4 | z2 .D4 z6 | %8
 x12 | x12 | x12 | x12 | x12 | x12 | x12 | x12 |] %16
V:6
 x12 | x12 | x12 | x12 | x12 | x12 | x2[K:bass] x10 | B,,6 z6 | x12 | x12 | .D6[K:bass] .B,,6 | %11
 E,12[K:treble] | x12 | x12 | z6 .B,,6 | E,12 |] %16

